X: 43566
T: Young Conor Of Lachineen
R: jig
M: 6/8
K: Ddorian
F|EFD EFG|AdB cAG|EFD EFG|AFD ECB,|
A,CE DFA|A,EA AGE|CEG cGE|A,CE D2:|
E|FCC ACC|FCC AGF|EGG AGF|EFG CDE|
FDE FGA|AdA AFD|CEG cGE|A,CE D3:|
dAA fed|cGG cde|dAA edc|cde d2e|
fed edc|dcA AGE|CEG cGE|A,CE D3:|
A,DD FDD|ADD FDD|ACC ECC|GCC ECA,|
A,B,B, FB,B,|GB,B, FB,B,|CEG cGE|A,CE D2:|

